src/images/svg/symbols/btc_cash_flag.svg

<svg width="33" height="32" viewBox="0 0 33 32" fill="none" xmlns="http://www.w3.org/2000/svg">
<path d="M0.5 16C0.5 7.16344 7.66344 0 16.5 0C25.3366 0 32.5 7.16344 32.5 16C32.5 24.8366 25.3366 32 16.5 32C7.66344 32 0.5 24.8366 0.5 16Z" fill="#8DC351"/>
<path d="M21.7071 10.5337C20.9311 8.56174 18.9851 8.38374 16.7191 8.82374L15.9121 6.01074L14.2001 6.50174L14.9861 9.24174C14.5361 9.36974 14.0781 9.51174 13.6231 9.65174L12.8331 6.89374L11.1221 7.38374L11.9271 10.1967C11.5591 10.3107 11.1971 10.4227 10.8421 10.5247L10.8391 10.5147L8.47705 11.1917L9.00205 13.0217C9.00205 13.0217 10.2601 12.6337 10.2451 12.6637C10.9391 12.4647 11.2801 12.8027 11.4451 13.1317L12.3651 16.3357C12.4121 16.3227 12.4751 16.3067 12.5491 16.2957L12.3681 16.3477L13.6551 20.8377C13.6871 21.0647 13.6591 21.4497 13.1751 21.5897C13.2021 21.6027 11.9291 21.9457 11.9291 21.9457L12.1761 24.0887L14.4041 23.4487C14.8191 23.3317 15.2291 23.2217 15.6301 23.1087L16.4471 25.9537L18.1571 25.4637L17.3501 22.6487C17.8087 22.527 18.2661 22.4004 18.7221 22.2687L19.5241 25.0717L21.2371 24.5807L20.4231 21.7407C23.2541 20.7497 25.061 19.4467 24.536 16.6707C24.114 14.4367 22.8121 13.7587 21.0651 13.8347C21.9131 13.0447 22.2781 11.9767 21.7071 10.5347V10.5337ZM21.057 17.3037C21.667 19.4307 17.9571 20.2327 16.7971 20.5667L15.7161 16.7967C16.876 16.4637 20.4201 15.0867 21.0561 17.3047L21.057 17.3037ZM18.7351 12.2137C19.2891 14.1487 16.1881 14.7937 15.2211 15.0707L14.2411 11.6517C15.2071 11.3747 18.1561 10.1967 18.7351 12.2147V12.2137Z" fill="white"/>
</svg>

<svg width="33" height="32" fill="none" xmlns="http://www.w3.org/2000/svg"><path d="M.5 16c0-8.837 7.163-16 16-16s16 7.163 16 16-7.163 16-16 16-16-7.163-16-16Z" fill="#8DC351"/><path d="M21.707 10.534c-.776-1.972-2.722-2.15-4.988-1.71l-.807-2.813-1.712.49.786 2.74c-.45.129-.908.27-1.363.41l-.79-2.757-1.71.49.804 2.813c-.368.114-.73.226-1.085.328l-.003-.01-2.362.677.525 1.83s1.258-.388 1.243-.358c.694-.2 1.035.139 1.2.468l.92 3.204c.047-.013.11-.03.184-.04l-.18.052 1.286 4.49c.032.227.004.612-.48.752.027.013-1.246.356-1.246.356l.247 2.143 2.228-.64c.415-.117.825-.227 1.226-.34l.817 2.845 1.71-.49-.807-2.815c.459-.122.916-.249 1.372-.38l.802 2.803 1.713-.491-.814-2.84c2.831-.991 4.638-2.294 4.113-5.07-.422-2.234-1.724-2.912-3.47-2.836.847-.79 1.212-1.858.641-3.3v-.001Zm-.65 6.77c.61 2.127-3.1 2.929-4.26 3.263l-1.08-3.77c1.159-.333 4.703-1.71 5.34.508v-.001Zm-2.322-5.09c.554 1.935-2.547 2.58-3.514 2.857l-.98-3.42c.966-.276 3.915-1.454 4.494.564v-.001Z" fill="#fff"/></svg>
